icon-themes/breeze_svg/cmd/lc_connectorlinearrows.svg

<svg viewBox="0 0 24 24" xmlns="http://www.w3.org/2000/svg"><path d="m4 4v4l1.28125-1.28125 2 2 10 10-1.28125 1.28125h4v-4l-1.28125 1.28125-10-10-2-2 1.28125-1.28125z" fill="#4d4d4d"/></svg>

<svg xmlns="http://www.w3.org/2000/svg" viewBox="0 0 24 24">
 <path 
     style="fill:#4d4d4d" 
     d="M 4 4 L 4 8 L 5.28125 6.71875 L 7.28125 8.71875 L 17.28125 18.71875 L 16 20 L 20 20 L 20 16 L 18.71875 17.28125 L 8.71875 7.28125 L 6.71875 5.28125 L 8 4 L 4 4 z "
     />
 </svg>
